public/assets/svg/difor.svg

<svg width="97" height="44" viewBox="0 0 97 44" fill="none" xmlns="http://www.w3.org/2000/svg">
<g clip-path="url(#clip0_2074_6073)">
<path fill-rule="evenodd" clip-rule="evenodd" d="M10.9697 19.2429V38.0215H16.3997C19.1865 38.0215 21.1226 37.1558 22.2229 34.408C22.8128 32.9025 23.1116 30.2864 23.1116 28.1937C23.1116 25.3105 22.6578 23.1048 21.7654 21.5652C20.873 20.0259 19.0845 19.2429 16.4073 19.2429H10.9697ZM21.7654 14.9481C23.7191 15.5792 25.407 16.8382 26.5639 18.5278C27.5348 19.9044 28.2188 21.4606 28.5755 23.1048C28.9186 24.6412 29.096 26.2096 29.105 27.7834C29.105 31.5474 28.3486 35.0404 26.8361 37.645C24.7942 41.1732 21.6431 42.9297 17.3828 42.9147H5.47168V14.3083H17.3979C18.8792 14.2914 20.354 14.5048 21.7692 14.9407" fill="white"/>
<path fill-rule="evenodd" clip-rule="evenodd" d="M37.7601 19.1528H32.228V14.0977H37.7601V19.1528ZM32.228 21.7122H37.7601V42.9563H32.228V21.7122Z" fill="white"/>
<path fill-rule="evenodd" clip-rule="evenodd" d="M51.396 14.0861C51.6833 14.0861 52.0689 14.1162 52.5304 14.1538V18.618C52.2164 18.5728 51.706 18.5577 50.9838 18.5389C50.2616 18.5201 49.7737 18.6707 49.4977 19.0131C49.2293 19.3281 49.0855 19.7295 49.0931 20.1423V21.9077H52.674V25.7732H49.0931V42.956H43.6745V25.7696H40.6191V21.9039H43.5989V20.5602C43.5989 18.3018 43.9769 16.7661 44.7333 15.923C45.5324 14.6683 47.4419 14.0409 50.4619 14.0409C50.8023 14.0409 51.1161 14.0597 51.3922 14.0861" fill="white"/>
<path fill-rule="evenodd" clip-rule="evenodd" d="M68.5477 37.0729C69.4023 35.9437 69.8283 34.3226 69.8257 32.2098C69.8233 30.0969 69.3972 28.4885 68.5477 27.3843C68.0973 26.8463 67.5337 26.4134 66.8966 26.1163C66.2595 25.8192 65.5645 25.6652 64.8609 25.6652C64.1574 25.6652 63.4624 25.8192 62.8253 26.1163C62.1882 26.4134 61.6245 26.8463 61.1741 27.3843C60.3157 28.5135 59.8998 30.1208 59.8998 32.2098C59.8998 34.2988 60.3157 35.9437 61.1741 37.0729C62.0325 38.2021 63.2727 38.7968 64.8722 38.7968C66.4717 38.7968 67.6855 38.2284 68.5477 37.0729ZM72.9113 40.1255C71.1467 42.3011 68.4746 43.3888 64.8949 43.3888C61.2988 43.3888 58.633 42.3011 56.871 40.1255C55.1089 37.95 54.2241 35.2963 54.2241 32.2212C54.1677 29.3779 55.1031 26.6032 56.871 24.3694C58.633 22.1599 61.2988 21.0496 64.8949 21.0496C68.4909 21.0496 71.153 22.1788 72.9113 24.3694C74.6825 26.6015 75.6182 29.3774 75.5582 32.2212C75.5582 35.3076 74.6885 37.9386 72.9113 40.1255Z" fill="white"/>
<path fill-rule="evenodd" clip-rule="evenodd" d="M90.0901 21.234C90.1581 21.234 90.3132 21.234 90.5627 21.234V26.8461C90.2224 26.7972 89.9086 26.7858 89.6477 26.767C89.3868 26.7482 89.1598 26.767 88.9897 26.767C86.8003 26.767 85.3293 27.4897 84.5542 28.92C84.142 29.7142 83.9416 30.9714 83.9416 32.6539V42.9559H78.4512V21.727H83.6542V25.378C84.5088 23.9817 85.2348 23.0218 85.8625 22.5099C86.9897 21.6208 88.3996 21.1628 89.8366 21.2188C89.9223 21.2169 90.0079 21.2284 90.0901 21.2528" fill="white"/>
<path d="M96.0531 0.611084H0V7.44273H96.0531V0.611084Z" fill="white"/>
</g>
<defs>
<clipPath id="clip0_2074_6073">
<rect width="97" height="44" fill="white"/>
</clipPath>
</defs>
</svg>

<svg
      width="37"
      height="44"
      viewBox="0 0 97 44"
      fill="none"
      xmlns="http://www.w3.org/2000/svg"
      
    >
      <g clipPath="url(#clip0_2074_6073)" fill="#fff">
        <path
          fillRule="evenodd"
          clipRule="evenodd"
          d="M10.97 19.243v18.779h5.43c2.787 0 4.723-.866 5.823-3.614.59-1.505.889-4.122.889-6.214 0-2.883-.454-5.09-1.347-6.629-.892-1.54-2.68-2.322-5.358-2.322H10.97zm10.795-4.295a9.266 9.266 0 014.799 3.58 12.562 12.562 0 012.012 4.577c.343 1.536.52 3.105.529 4.678 0 3.764-.756 7.257-2.269 9.862-2.042 3.528-5.193 5.285-9.453 5.27H5.472V14.308h11.926a14.296 14.296 0 014.371.633M37.76 19.153h-5.532v-5.055h5.532v5.055zm-5.532 2.56h5.532v21.243h-5.532V21.712zM51.396 14.086c.287 0 .673.03 1.134.068v4.464c-.314-.045-.824-.06-1.546-.08-.722-.018-1.21.133-1.486.475a1.693 1.693 0 00-.405 1.13v1.765h3.581v3.865h-3.58v17.183h-5.42V25.77H40.62v-3.866h2.98V20.56c0-2.258.378-3.794 1.134-4.637.8-1.255 2.709-1.882 5.729-1.882.34 0 .654.019.93.045M68.548 37.073c.854-1.13 1.28-2.75 1.278-4.863-.003-2.113-.429-3.722-1.278-4.826a4.797 4.797 0 00-3.687-1.719 4.817 4.817 0 00-3.687 1.72c-.858 1.128-1.274 2.736-1.274 4.825s.416 3.734 1.274 4.863c.858 1.13 2.099 1.724 3.698 1.724 1.6 0 2.814-.569 3.676-1.724zm4.363 3.053c-1.764 2.175-4.436 3.263-8.016 3.263-3.596 0-6.262-1.088-8.024-3.264-1.762-2.175-2.647-4.829-2.647-7.904a12.26 12.26 0 012.647-7.852c1.762-2.21 4.428-3.32 8.024-3.32 3.596 0 6.258 1.13 8.016 3.32a12.216 12.216 0 012.647 7.852c0 3.087-.87 5.718-2.647 7.905zM90.09 21.234h.473v5.612c-.34-.049-.654-.06-.915-.079-.261-.019-.488 0-.658 0-2.19 0-3.66.723-4.436 2.153-.412.794-.612 2.051-.612 3.734v10.302h-5.49V21.727h5.202v3.651c.855-1.396 1.58-2.356 2.209-2.868a6.038 6.038 0 013.974-1.291.827.827 0 01.253.034"
        />
        <path d="M96.053.611H0v6.832h96.053V.61z" />
      </g>
      <defs>
        <clipPath id="clip0_2074_6073">
          <path fill="#fff" d="M0 0H97V44H0z" />
        </clipPath>
      </defs>
    </svg>
